elements/app-hax/lib/assets/images/PartyStyle.svg

<svg width="213" height="137" viewBox="0 0 213 137" fill="none" xmlns="http://www.w3.org/2000/svg">
<mask id="path-1-outside-1_67_2013" maskUnits="userSpaceOnUse" x="0" y="0" width="213" height="137" fill="black">
<rect fill="white" width="213" height="137"/>
<path d="M13.0132 5H199.987V132H13.0132V5Z"/>
<path d="M5 13.0211H13.0132V123.979H5V13.0211Z"/>
<path d="M199.987 13.0211H208V123.979H199.987V13.0211Z"/>
</mask>
<path d="M13.0132 5H199.987V132H13.0132V5Z" fill="#C4C4C4"/>
<path d="M5 13.0211H13.0132V123.979H5V13.0211Z" fill="#C4C4C4"/>
<path d="M199.987 13.0211H208V123.979H199.987V13.0211Z" fill="#C4C4C4"/>
<path d="M13.0132 5V0H8.01316V5H13.0132ZM199.987 5H204.987V0H199.987V5ZM199.987 132V137H204.987V132H199.987ZM13.0132 132H8.01316V137H13.0132V132ZM5 13.0211V8.02105H0V13.0211H5ZM13.0132 13.0211H18.0132V8.02105H13.0132V13.0211ZM13.0132 123.979V128.979H18.0132V123.979H13.0132ZM5 123.979H0V128.979H5V123.979ZM199.987 13.0211V8.02105H194.987V13.0211H199.987ZM208 13.0211H213V8.02105H208V13.0211ZM208 123.979V128.979H213V123.979H208ZM199.987 123.979H194.987V128.979H199.987V123.979ZM13.0132 10H199.987V0H13.0132V10ZM194.987 5V132H204.987V5H194.987ZM199.987 127H13.0132V137H199.987V127ZM18.0132 132V5H8.01316V132H18.0132ZM5 18.0211H13.0132V8.02105H5V18.0211ZM8.01316 13.0211V123.979H18.0132V13.0211H8.01316ZM13.0132 118.979H5V128.979H13.0132V118.979ZM10 123.979V13.0211H0V123.979H10ZM199.987 18.0211H208V8.02105H199.987V18.0211ZM203 13.0211V123.979H213V13.0211H203ZM208 118.979H199.987V128.979H208V118.979ZM204.987 123.979V13.0211H194.987V123.979H204.987Z" fill="black" mask="url(#path-1-outside-1_67_2013)"/>
<path d="M191.974 115.958H199.987V21.042H191.974V115.958Z" fill="white"/>
<path d="M45.0658 115.958H53.079V21.042H45.0658V115.958Z" fill="white"/>
<path d="M53.079 123.979H191.974V13.021H53.079V123.979Z" fill="white"/>
<path d="M193.474 19.542V13.021V11.521H191.974H53.079H51.579V13.021V19.542H45.0658H43.5658V21.042V115.958V117.458H45.0658H51.579V123.979V125.479H53.079H191.974H193.474V123.979V117.458H199.987H201.487V115.958V21.042V19.542H199.987H193.474Z" stroke="black" stroke-opacity="0.5" stroke-width="3"/>
<path d="M45.0658 115.958H53.079V21.042H45.0658V115.958Z" fill="#D6D7B4"/>
<path d="M53.079 123.979H73.1118V13.021L53.079 13.021V123.979Z" fill="#D6D7B4"/>
<path d="M191.974 28.7289H199.987V21.042H191.974V28.7289Z" fill="#749D78"/>
<path d="M45.0658 28.7289H53.079V21.042H45.0658V28.7289Z" fill="#749D78"/>
<path d="M53.079 28.7289H191.974V13.021H53.079V28.7289Z" fill="#749D78"/>
<path d="M81.5362 43.8289V36.3289H79.0362V35.0789H86.5362V36.3289H84.0362V43.8289H81.5362ZM91.5362 43.8289V38.8289H89.0362V37.5789H91.5362V35.0789H94.0362V37.5789H96.5362V38.8289H94.0362V43.8289H91.5362Z" fill="#09083A"/>
<path d="M88.7993 55.4473V51.4473H86.7993V50.4473H88.7993V48.4473H90.7993V50.4473H92.7993V51.4473H90.7993V55.4473H88.7993ZM96.7993 55.4473V51.4473H94.7993V50.4473H96.7993V48.4473H98.7993V50.4473H100.799V51.4473H98.7993V55.4473H96.7993Z" fill="#4E5E88"/>
<path d="M88.7993 67.0657V66.3157H88.0493V65.5657H87.2993V64.8157H86.5493V64.0657H87.2993V63.3157H88.0493V62.5657H88.7993V61.8157H90.2993V62.5657H89.5493V63.3157H88.7993V64.0657H88.0493V64.8157H88.7993V65.5657H89.5493V66.3157H90.2993V67.0657H88.7993ZM92.5493 67.0657V66.3157H94.0493V62.5657H93.2993V61.8157H95.5493V66.3157H97.0493V67.0657H92.5493ZM100.049 62.5657V61.8157H101.549V62.5657H100.049ZM98.5493 67.0657V66.3157H100.049V64.0657H99.2993V63.3157H101.549V66.3157H103.049V67.0657H98.5493ZM103.799 67.0657V63.3157H108.299V64.0657H109.049V67.0657H107.549V64.0657H105.299V67.0657H103.799ZM109.799 67.0657V61.8157H111.299V64.8157H112.799V64.0657H113.549V63.3157H115.049V64.0657H114.299V64.8157H113.549V65.5657H114.299V66.3157H115.049V67.0657H113.549V66.3157H112.799V65.5657H111.299V67.0657H109.799ZM116.549 67.0657V66.3157H117.299V65.5657H118.049V64.8157H118.799V64.0657H118.049V63.3157H117.299V62.5657H116.549V61.8157H118.049V62.5657H118.799V63.3157H119.549V64.0657H120.299V64.8157H119.549V65.5657H118.799V66.3157H118.049V67.0657H116.549Z" fill="#BD4686"/>
<rect x="19.6908" y="64.4895" width="8.01316" height="8.02106" fill="white"/>
<rect x="18.1908" y="62.9895" width="11.0132" height="11.0211" stroke="black" stroke-opacity="0.5" stroke-width="3"/>
</svg>

<svg xmlns="http://www.w3.org/2000/svg" fill="none" width="213" height="137" viewBox="0 0 213 137"><mask fill="#000" id="a" width="213" height="137" x="0" y="0" maskUnits="userSpaceOnUse"><path d="M0 0h213v137H0z" fill="#fff"/><path d="M13.013 5h186.974v127H13.013V5ZM5 13.021h8.013V123.98H5V13.021Zm194.987 0H208V123.98h-8.013V13.021Z"/></mask><path d="M13.013 5h186.974v127H13.013V5ZM5 13.021h8.013V123.98H5V13.021Zm194.987 0H208V123.98h-8.013V13.021Z" fill="#C4C4C4"/><path d="M13.013 5V0h-5v5h5Zm186.974 0h5V0h-5v5Zm0 127v5h5v-5h-5Zm-186.974 0h-5v5h5v-5ZM5 13.021v-5H0v5h5Zm8.013 0h5v-5h-5v5Zm0 110.958v5h5v-5h-5Zm-8.013 0H0v5h5v-5ZM199.987 13.021v-5h-5v5h5Zm8.013 0h5v-5h-5v5Zm0 110.958v5h5v-5h-5Zm-8.013 0h-5v5h5v-5ZM13.013 10h186.974V0H13.013v10Zm181.974-5v127h10V5h-10Zm5 122H13.013v10h186.974v-10Zm-181.974 5V5h-10v127h10ZM5 18.021h8.013v-10H5v10Zm3.013-5V123.98h10V13.021h-10Zm5 105.958H5v10h8.013v-10Zm-3.013 5V13.021H0V123.98h10ZM199.987 18.021H208v-10h-8.013v10Zm3.013-5V123.98h10V13.021h-10Zm5 105.958h-8.013v10H208v-10Zm-3.013 5V13.021h-10V123.98h10Z" fill="#000" mask="url(#a)"/><path d="M191.974 115.958h8.013V21.042h-8.013v94.916Zm-146.908 0h8.013V21.042h-8.013v94.916Zm8.013 8.021h138.895V13.021H53.079v110.958Z" fill="#fff"/><path d="M193.474 19.542v-8.021H51.579v8.021h-8.013v97.916h8.013v8.021h141.895v-8.021h8.013V19.542h-8.013Z" stroke="#000" stroke-opacity=".5" stroke-width="3"/><path d="M45.066 115.958h8.013V21.042h-8.013v94.916Zm8.013 8.021h20.033V13.021H53.079v110.958Z" fill="#D6D7B4"/><path d="M191.974 28.729h8.013v-7.687h-8.013v7.687Zm-146.908 0h8.013v-7.687h-8.013v7.687Zm8.013 0h138.895V13.02H53.079v15.708Z" fill="#749D78"/><path d="M81.536 43.829v-7.5h-2.5v-1.25h7.5v1.25h-2.5v7.5h-2.5Zm10 0v-5h-2.5v-1.25h2.5v-2.5h2.5v2.5h2.5v1.25h-2.5v5h-2.5Z" fill="#09083A"/><path d="M88.8 55.447v-4h-2v-1h2v-2h2v2h2v1h-2v4h-2Zm8 0v-4h-2v-1h2v-2h2v2h1.999v1h-2v4h-2Z" fill="#4E5E88"/><path d="M88.8 67.066v-.75h-.75v-.75h-.75v-.75h-.75v-.75h.75v-.75h.75v-.75h.75v-.75h1.5v.75h-.75v.75h-.75v.75h-.75v.75h.75v.75h.75v.75h.75v.75h-1.5Zm3.75 0v-.75h1.5v-3.75h-.75v-.75h2.25v4.5h1.5v.75h-4.5Zm7.499-4.5v-.75h1.5v.75h-1.5Zm-1.5 4.5v-.75h1.5v-2.25h-.75v-.75h2.25v3h1.5v.75h-4.5Zm5.25 0v-3.75h4.5v.75h.75v3h-1.5v-3h-2.25v3h-1.5Zm6 0v-5.25h1.5v3h1.5v-.75h.75v-.75h1.5v.75h-.75v.75h-.75v.75h.75v.75h.75v.75h-1.5v-.75h-.75v-.75h-1.5v1.5h-1.5Zm6.75 0v-.75h.75v-.75h.75v-.75h.75v-.75h-.75v-.75h-.75v-.75h-.75v-.75h1.5v.75h.75v.75h.75v.75h.75v.75h-.75v.75h-.75v.75h-.75v.75h-1.5Z" fill="#BD4686"/><path d="M19.691 64.49h8.013v8.021h-8.013z" fill="#fff"/><path d="M18.191 62.989h11.013V74.01H18.191z" stroke="#000" stroke-opacity=".5" stroke-width="3"/></svg>
